static/images/mask.svg

<svg enable-background="new 0 0 64 64" viewBox="0 0 64 64" xmlns="http://www.w3.org/2000/svg"><path d="m32 62h-29v-2c.62-1.86 1.71-3.48 3.12-4.74 1.42-1.26 3.16-2.16 5.07-2.56l2.2-.46 7.43-1.57c1.85-.39 3.18-2.02 3.18-3.92v-2.64h16v2.64c0 1.9 1.33 3.53 3.18 3.92l7.43 1.57 2.2.46c3.83.8 6.95 3.58 8.19 7.3v2z" fill="#3a4249"/><path d="m43.18 50.67 7.43 1.57c-3.9 4.06-10.78 6.76-18.61 6.76s-14.71-2.7-18.61-6.76l7.43-1.57c1.85-.39 3.18-2.02 3.18-3.92v-2.64h16v2.64c0 1.9 1.33 3.53 3.18 3.92z" fill="#f2daae"/><path d="m50 11h-2.428c1.243 2.146 2.07 4.563 2.334 7.153.059.273.094.556.094.847v1 8 7c0 6.075 4.925 11 11 11v-24c0-6.075-4.925-11-11-11z" fill="#aa494a"/><path d="m50 21v7c0 9.94-8.06 18-18 18s-18-8.06-18-18v-7-1c0-9.94 8.06-18 18-18 4.97 0 9.47 2.02 12.73 5.27 3.25 3.26 5.27 7.76 5.27 12.73z" fill="#f2daae"/><path d="m44.001 42c-.502-.231-.721-.826-.49-1.327l5.162-11.184c.232-.502.826-.72 1.327-.489h.001c.501.231.72.826.489 1.327l-5.162 11.184c-.233.502-.827.72-1.327.489z" fill="#f7eedc"/><path d="m18.673 41.511-5.162-11.184c-.232-.502-.012-1.096.489-1.327h.001c.501-.232 1.095-.013 1.326.489l5.162 11.184c.232.501.013 1.095-.489 1.327-.502.231-1.096.012-1.327-.489z" fill="#f7eedc"/><path d="m44 30-12-2-12 2v12c7.111 5.333 16.889 5.333 24 0z" fill="#62c4c3"/><circle cx="25" cy="25" fill="#3a4249" r="2"/><circle cx="39" cy="25" fill="#3a4249" r="2"/><path d="m12 28h2v-8h-2c-2.209 0-4 1.791-4 4s1.791 4 4 4z" fill="#e0c485"/><path d="m52 20h-2v8h2c2.209 0 4-1.791 4-4s-1.791-4-4-4z" fill="#e0c485"/><path d="m50 20v1c-12.71 0-23-4.92-23-11 0 6.08-5.81 11-13 11v-1c0-9.94 8.06-18 18-18 4.97 0 9.47 2.02 12.73 5.27 3.25 3.26 5.27 7.76 5.27 12.73z" fill="#d36767"/><path d="m18.59 29.892-4.698-5.481c-.36-.42-.311-1.051.108-1.411.42-.359 1.051-.311 1.41.109l4.699 5.481c.359.42.311 1.051-.109 1.41-.419.36-1.051.311-1.41-.108z" fill="#f7eedc"/><path d="m44 30c-.442-.332-.531-.958-.2-1.4l4.8-6.4c.332-.442.959-.532 1.4-.2.442.332.531.958.2 1.4l-4.8 6.4c-.332.442-.959.532-1.4.2z" fill="#f7eedc"/><g fill="#3a4249"><path d="m20 34c-.108-.542.243-1.068.784-1.177l3.039-.607c.542-.109 1.069.242 1.177.784s-.243 1.068-.784 1.177l-3.039.607c-.542.109-1.069-.242-1.177-.784z"/><path d="m23.823 39.784-3.039-.607c-.542-.109-.893-.636-.784-1.177.108-.542.635-.893 1.177-.784l3.039.607c.541.108.892.635.784 1.177-.109.541-.635.892-1.177.784z"/><path d="m42.823 34.784-3.039-.607c-.542-.109-.893-.636-.784-1.177.108-.542.635-.893 1.177-.784l3.039.607c.541.108.892.635.784 1.177-.109.541-.635.892-1.177.784z"/><path d="m39 39c-.108-.542.243-1.068.784-1.177l3.039-.607c.542-.109 1.069.242 1.177.784s-.243 1.068-.784 1.177l-3.039.607c-.542.109-1.069-.242-1.177-.784z"/></g></svg>

<?xml version="1.0" ?><svg id="_x31_-outline-expand" style="enable-background:new 0 0 64 64;" version="1.1" viewBox="0 0 64 64" xml:space="preserve" xmlns="http://www.w3.org/2000/svg" xmlns:xlink="http://www.w3.org/1999/xlink"><path d="M32,62H3v-2c0.62-1.86,1.71-3.48,3.12-4.74C7.54,54,9.28,53.1,11.19,52.7l2.2-0.46l7.43-1.57  c1.85-0.39,3.18-2.02,3.18-3.92v-2.64h16v2.64c0,1.9,1.33,3.53,3.18,3.92l7.43,1.57l2.2,0.46c3.83,0.8,6.95,3.58,8.19,7.3v2H32z" style="fill:#3A4249;"/><path d="M43.18,50.67l7.43,1.57C46.71,56.3,39.83,59,32,59s-14.71-2.7-18.61-6.76l7.43-1.57  c1.85-0.39,3.18-2.02,3.18-3.92v-2.64h16v2.64C40,48.65,41.33,50.28,43.18,50.67z" style="fill:#F2DAAE;"/><path d="M50,11h-2.428c1.243,2.146,2.07,4.563,2.334,7.153C49.965,18.426,50,18.709,50,19v1v8v7  c0,6.075,4.925,11,11,11V22C61,15.925,56.075,11,50,11z" style="fill:#AA494A;"/><path d="M50,21v7c0,9.94-8.06,18-18,18c-9.94,0-18-8.06-18-18v-7v-1c0-9.94,8.06-18,18-18  c4.97,0,9.47,2.02,12.73,5.27C47.98,10.53,50,15.03,50,20V21z" style="fill:#F2DAAE;"/><path d="M44.001,42L44.001,42c-0.502-0.231-0.721-0.826-0.49-1.327l5.162-11.184  c0.232-0.502,0.826-0.72,1.327-0.489h0.001c0.501,0.231,0.72,0.826,0.489,1.327l-5.162,11.184  C45.095,42.013,44.501,42.231,44.001,42z" style="fill:#F7EEDC;"/><path d="M18.673,41.511l-5.162-11.184C13.279,29.825,13.499,29.231,14,29h0.001  c0.501-0.232,1.095-0.013,1.326,0.489l5.162,11.184C20.721,41.174,20.502,41.768,20,42C19.498,42.231,18.904,42.012,18.673,41.511z" style="fill:#F7EEDC;"/><path d="M44,30l-12-2l-12,2v12c7.111,5.333,16.889,5.333,24,0V30z" style="fill:#62C4C3;"/><circle cx="25" cy="25" r="2" style="fill:#3A4249;"/><circle cx="39" cy="25" r="2" style="fill:#3A4249;"/><path d="M12,28h2v-8h-2c-2.209,0-4,1.791-4,4C8,26.209,9.791,28,12,28z" style="fill:#E0C485;"/><path d="M52,20h-2v8h2c2.209,0,4-1.791,4-4C56,21.791,54.209,20,52,20z" style="fill:#E0C485;"/><path d="M50,20v1c-12.71,0-23-4.92-23-11c0,6.08-5.81,11-13,11v-1c0-9.94,8.06-18,18-18  c4.97,0,9.47,2.02,12.73,5.27C47.98,10.53,50,15.03,50,20z" style="fill:#D36767;"/><path d="M18.59,29.892l-4.698-5.481C13.532,23.991,13.581,23.36,14,23c0.42-0.359,1.051-0.311,1.41,0.109  l4.699,5.481C20.468,29.01,20.42,29.641,20,30C19.581,30.36,18.949,30.311,18.59,29.892z" style="fill:#F7EEDC;"/><path d="M44,30L44,30c-0.442-0.332-0.531-0.958-0.2-1.4l4.8-6.4c0.332-0.442,0.959-0.532,1.4-0.2  c0.442,0.332,0.531,0.958,0.2,1.4l-4.8,6.4C45.068,30.242,44.441,30.332,44,30z" style="fill:#F7EEDC;"/><path d="M20,34L20,34c-0.108-0.542,0.243-1.068,0.784-1.177l3.039-0.607C24.365,32.107,24.892,32.458,25,33  c0.108,0.542-0.243,1.068-0.784,1.177l-3.039,0.607C20.635,34.893,20.108,34.542,20,34z" style="fill:#3A4249;"/><path d="M23.823,39.784l-3.039-0.607C20.242,39.068,19.891,38.541,20,38c0.108-0.542,0.635-0.893,1.177-0.784  l3.039,0.607C24.757,37.931,25.108,38.458,25,39C24.891,39.541,24.365,39.892,23.823,39.784z" style="fill:#3A4249;"/><path d="M42.823,34.784l-3.039-0.607C39.242,34.068,38.891,33.541,39,33c0.108-0.542,0.635-0.893,1.177-0.784  l3.039,0.607C43.757,32.931,44.108,33.458,44,34C43.891,34.541,43.365,34.892,42.823,34.784z" style="fill:#3A4249;"/><path d="M39,39L39,39c-0.108-0.542,0.243-1.068,0.784-1.177l3.039-0.607C43.365,37.107,43.892,37.458,44,38  c0.108,0.542-0.243,1.068-0.784,1.177l-3.039,0.607C39.635,39.893,39.108,39.542,39,39z" style="fill:#3A4249;"/></svg>
